web/packages/design/src/ResourceIcon/assets/leandata.svg

<svg width="72" height="72" viewBox="0 0 72 72" fill="none" xmlns="http://www.w3.org/2000/svg">
<g clip-path="url(#clip0_16904_17442)">
<path d="M72 36.004C72 55.3839 55.9319 71.2067 36.0613 71.2067C16.1908 71.2067 0 55.3839 0 36.004C0 16.6241 16.1908 0.80127 36.0613 0.80127C55.9319 0.80127 72 16.6241 72 36.004Z" fill="#2DB66F"/>
<path d="M51.7611 22.5117H33.1172V47.6565H51.7611V22.5117Z" fill="#58595B"/>
<path d="M40.1095 46.9204H35.4486V24.5967H40.1095C44.8932 24.5967 47.101 26.5592 48.3276 28.2764C49.6768 30.4842 50.4128 33.1827 50.4128 35.7585C50.4128 41.5234 48.0823 46.7977 40.1095 46.9204ZM57.2816 23.0021C51.762 15.52 43.4213 15.52 38.6376 15.52H24.7773V55.1384C27.9664 55.7517 31.1555 55.2611 34.4673 55.2611C34.7126 55.2611 34.8353 55.3837 34.9579 55.5064C35.2032 55.5064 35.5712 55.7517 35.5712 55.997H39.4963C55.4417 55.997 61.2066 46.675 61.2066 35.6359C61.3293 31.0975 59.9801 26.6819 57.2816 23.0021Z" fill="white"/>
<path d="M14.4736 15.52H24.8995V46.7977L35.4481 46.9204V55.8744H14.4736V15.52Z" fill="#58595B"/>
</g>
<defs>
<clipPath id="clip0_16904_17442">
<rect width="72" height="72" fill="white" transform="translate(0 0.00146484)"/>
</clipPath>
</defs>
</svg>

<svg xmlns="http://www.w3.org/2000/svg" width="72" height="72" fill="none" viewBox="0 0 72 72"><g clip-path="url(#a)"><path fill="#2db66f" d="M72 36.004c0 19.38-16.068 35.203-35.939 35.203S0 55.384 0 36.004 16.19.801 36.061.801 72 16.624 72 36.004"/><path fill="#58595b" d="M51.761 22.512H33.117v25.145h18.644z"/><path fill="#fff" d="M40.11 46.92h-4.661V24.597h4.66c4.784 0 6.992 1.962 8.219 3.68 1.349 2.207 2.085 4.906 2.085 7.481 0 5.765-2.33 11.04-10.303 11.162m17.172-23.918c-5.52-7.482-13.86-7.482-18.644-7.482h-13.86v39.618c3.188.614 6.378.123 9.69.123.245 0 .367.123.49.245.245 0 .613.246.613.491h3.925c15.946 0 21.71-9.322 21.71-20.361.123-4.539-1.226-8.954-3.924-12.634"/><path fill="#58595b" d="M14.474 15.52H24.9v31.278l10.548.122v8.954H14.474z"/></g><defs><clipPath id="a"><path fill="#fff" d="M0 .001h72v72H0z"/></clipPath></defs></svg>
